X:1095
L:1/8
M:4/4
K:C
[M:6/8][K:Amin] _c[Q:1/8=320]B |: c2 B c2 e | d3 d2 B | c2 B c2 e | d2 B G2 B | c2 B c2 e | 
 d2 d ^c2 d |1 e2 a a2 b | a2 g e2 d :|2 e2 a a2 ^g | a3 b2 a || g2 e e2 d | ^c2 d e2 ^f | 
 g2 e e2 d | ^c2 A A2 B | a2 e e2 d | ^c2 d e2 ^d |1 e2 a a2 ^g | a3 b2 a :|2 e2 a a2 b | 
 a2 g e2 d ||

